images/spartakiad-invasport_theme_light.svg

<svg width="50" height="50" viewBox="0 0 50 50" fill="none" xmlns="http://www.w3.org/2000/svg">
<path fill-rule="evenodd" clip-rule="evenodd" d="M20.2556 0.0682437C17.5931 0.287309 15.8335 0.603625 14.5223 1.09881C13.7692 1.38325 13.444 1.59734 13.6202 1.69256C13.6933 1.73205 15.0811 1.79062 16.7042 1.8226C21.7909 1.92309 25.3506 2.35838 27.791 3.1783C29.719 3.82606 32.3561 5.15741 33.8566 6.24045C36.0865 7.84994 38.3897 10.8326 39.8658 14.0224C41.2153 16.9381 41.6767 18.9721 41.7776 22.448C41.8083 23.5088 41.877 24.5521 41.9301 24.7666C42.0549 25.2699 42.6968 25.9732 43.2897 26.256C43.967 26.579 44.9109 26.5144 45.5678 26.0999C46.1605 25.7258 46.6057 25.1778 46.7145 24.6881C46.8998 23.8545 46.3859 20.1354 45.7176 17.4738C43.9484 10.427 40.0957 5.46012 34.0611 2.44619C31.7229 1.27848 29.905 0.724528 26.8613 0.252187C25.352 0.0179959 22.0012 -0.0753975 20.2556 0.0682437ZM23.3068 3.58608C19.1333 3.83509 14.7829 4.93936 11.9024 6.48104C9.93229 7.53535 8.52994 8.56987 6.915 10.1601C3.41213 13.6091 1.34162 17.7301 0.402952 23.1211C-0.274013 27.0089 -0.0710359 33.0196 0.80971 35.1704C0.927956 35.4591 1.0588 35.6954 1.10032 35.6954C1.21757 35.6954 1.2858 35.1718 1.39794 33.4114C1.62103 29.9111 2.25398 25.6813 2.91514 23.2713C3.48606 21.1903 4.40102 19.2657 5.98484 16.814C7.96062 13.7555 11.1817 11.3245 15.4037 9.7054C18.0746 8.68113 19.5167 8.44907 23.0925 8.46826C26.1414 8.4845 26.2163 8.4706 26.872 7.76285C27.3823 7.21214 27.5515 6.78771 27.5537 6.05356C27.5553 5.51189 27.5031 5.29699 27.2623 4.85378C26.9056 4.19719 26.4402 3.76556 25.9356 3.62334C25.5822 3.52375 24.588 3.50964 23.3068 3.58608ZM18.1638 10.6701C17.462 10.9628 16.8866 11.4972 16.5215 12.1951C16.2908 12.636 16.2559 12.8228 16.2559 13.6163C16.2559 14.4122 16.2907 14.597 16.5256 15.0505C17.0266 16.0175 17.8456 16.6367 18.8307 16.7934C21.1538 17.1628 23.0382 15.1281 22.4674 12.867C21.9759 10.9202 19.992 9.90741 18.1638 10.6701ZM27.4678 11.8686C26.7095 13.2395 24.1171 16.1869 22.7009 17.2881C21.2623 18.4068 19.8418 18.6958 18.0458 18.2353C17.0097 17.9695 16.2726 17.5906 13.8182 16.0626C12.2911 15.1118 11.5555 14.7178 10.8743 14.486C10.3748 14.316 9.9574 14.1878 9.9468 14.2011C9.88947 14.2733 11.4242 16.2956 12.2006 17.1713C12.6967 17.7306 13.3324 18.5072 13.6133 18.897C14.3661 19.9414 15.1651 21.6886 15.5276 23.083C15.8141 24.1849 15.8379 24.4058 15.8432 26.0009C15.8481 27.4634 15.8149 27.863 15.626 28.6202C15.0723 30.8395 13.8519 33.5121 12.384 35.7194L11.9969 36.3016L12.2747 36.1953C12.6993 36.033 14.8941 34.2321 17.1291 32.2127C18.5916 30.8912 22.1036 26.6134 23.3686 24.6126C24.4646 22.8792 26.3831 18.713 26.9015 16.9409C27.0199 16.536 27.1566 16.2049 27.2054 16.2049C27.2542 16.2049 27.3228 16.4675 27.3579 16.7886C27.4663 17.7785 27.7198 18.9633 27.9823 19.7071C28.372 20.8116 29.3463 22.7198 30.2164 24.0829C31.0082 25.3232 31.2648 25.8268 31.1595 25.9336C31.1066 25.9874 30.7694 25.9346 29.0091 25.5971C27.5005 25.3079 25.8243 25.4667 24.7482 26.001C24.1602 26.293 23.3282 27.1379 23.0147 27.7615C22.8969 27.9959 22.7537 28.5635 22.6966 29.023C22.4913 30.673 22.8997 32.6771 23.9202 35.0279C24.5316 36.4363 24.5214 36.444 24.701 34.4401C24.9675 31.4666 25.9507 29.9127 27.5675 29.9098C28.0967 29.9088 29.359 30.2855 30.5845 30.8101C32.9929 31.8411 34.0633 31.9487 35.0094 31.2547C35.5135 30.885 36.0545 30.1779 36.5048 29.3001C36.7995 28.7256 38.4532 24.8124 39.5867 22.0071C39.6247 21.913 39.521 21.9333 39.2517 22.0727C38.6531 22.3826 37.7065 22.6734 36.8851 22.7997C34.6816 23.1386 32.6442 21.6211 30.7536 18.2328C29.7424 16.4206 28.9992 14.555 28.409 12.3474C28.2374 11.7053 28.0613 11.1434 28.0178 11.0987C27.9742 11.054 27.7267 11.4005 27.4678 11.8686ZM48.9837 14.9106C48.9535 15.0363 48.8786 15.71 48.8171 16.4079C48.4421 20.6674 47.3286 26.2255 46.4121 28.4121C45.5882 30.378 43.9632 33.0666 42.6693 34.605C41.8984 35.5214 40.5417 36.6962 39.2631 37.5543C37.3126 38.8635 34.0453 40.2593 31.7331 40.7714C29.8402 41.1906 28.383 41.2404 24.6554 41.0133C23.657 40.9525 23.5141 40.9662 23.142 41.159C22.6139 41.4323 21.9744 42.1703 21.8239 42.6802C21.5479 43.6148 21.8218 44.6376 22.5443 45.3709C23.089 45.9236 23.4437 45.982 25.8578 45.9163C33.4753 45.7092 38.9204 43.6185 43.2155 39.2515C45.6941 36.7316 47.4466 33.8681 48.4981 30.6198C48.9964 29.0805 49.4574 27.233 49.6593 25.9664C50.0881 23.2762 50.1177 18.2907 49.7163 16.3664C49.4043 14.8704 49.1262 14.3178 48.9837 14.9106ZM36.2433 15.2704C35.15 15.6673 34.449 16.3692 34.1601 17.3566C33.7085 18.8996 34.3299 20.4204 35.7217 21.1788C36.2958 21.4917 36.4446 21.528 37.1623 21.531C37.8204 21.5337 38.0614 21.4872 38.5195 21.2693C40.5204 20.317 41.0061 17.625 39.4599 16.056C38.6554 15.2397 37.2639 14.8998 36.2433 15.2704ZM5.40261 21.5924C4.72455 21.9045 4.29758 22.2782 4.0906 22.7407C3.93254 23.094 3.90332 23.4174 3.90152 24.8335C3.89412 30.679 5.24525 35.8924 7.76894 39.756C11.2062 45.0181 16.4875 48.372 23.2568 49.5915C25.9858 50.0831 31.1437 50.1429 33.1516 49.7061C34.6678 49.3763 35.1879 49.0955 34.5299 48.9619C34.3752 48.9305 33.6662 48.8537 32.9543 48.7911C31.1982 48.6368 27.4192 48.0444 25.4077 47.6081C22.706 47.0221 20.8019 46.3286 18.9593 45.2596C17.7514 44.5586 15.9213 43.2987 15.1626 42.6455C12.9394 40.7316 10.7754 37.2163 9.62316 33.6465C8.65278 30.6405 8.46161 28.8677 8.71631 25.2396C8.78093 24.3183 8.80294 23.3985 8.76503 23.1955C8.67089 22.6898 7.97762 21.9167 7.35438 21.6222C6.72223 21.3235 6.01045 21.3126 5.40261 21.5924ZM40.4155 24.2758C40.4104 24.822 40.0926 27.168 39.9041 28.051C39.6091 29.4327 39.3826 29.9933 38.703 31.0245C37.9643 32.1451 37.1723 32.8862 36.2246 33.3436C35.5678 33.6606 35.3759 33.7044 34.4739 33.7441C32.6072 33.8262 30.5639 33.3013 28.4088 32.1861L27.1583 31.539L27.8086 32.146C29.661 33.8754 31.2089 35.077 32.255 35.5978C33.7248 36.3293 35.9148 36.6252 37.1623 36.2607C39.2061 35.6637 40.3845 34.305 41.2614 31.5349C41.8606 29.6419 41.8592 27.6056 41.2576 25.7743C40.9874 24.9518 40.4186 23.9397 40.4155 24.2758Z" fill="#0086FF"/>
</svg>

<svg width="50" height="50" fill="none" xmlns="http://www.w3.org/2000/svg"><path fill-rule="evenodd" clip-rule="evenodd" d="M20.256.068c-2.663.22-4.422.536-5.734 1.03-.753.285-1.078.5-.902.595.073.04 1.461.098 3.084.13 5.087.1 8.647.535 11.087 1.355 1.928.648 4.565 1.98 6.066 3.062 2.23 1.61 4.533 4.593 6.009 7.782 1.35 2.916 1.81 4.95 1.912 8.426.03 1.06.099 2.104.152 2.319.125.503.767 1.206 1.36 1.489.677.323 1.62.258 2.278-.156.593-.374 1.038-.922 1.147-1.412.185-.833-.33-4.553-.997-7.214-1.77-7.047-5.622-12.014-11.657-15.028-2.338-1.168-4.156-1.721-7.2-2.194-1.509-.234-4.86-.327-6.605-.184Zm3.05 3.518c-4.173.25-8.523 1.353-11.404 2.895-1.97 1.054-3.372 2.089-4.987 3.68-3.503 3.448-5.573 7.57-6.512 12.96-.677 3.888-.474 9.899.407 12.05.118.288.249.524.29.524.118 0 .186-.523.298-2.284.223-3.5.856-7.73 1.517-10.14.571-2.08 1.486-4.005 3.07-6.457 1.976-3.059 5.197-5.49 9.419-7.109 2.67-1.024 4.113-1.256 7.689-1.237 3.048.017 3.123.003 3.779-.705.51-.55.68-.975.682-1.71.001-.541-.05-.756-.292-1.2-.356-.656-.822-1.087-1.326-1.23-.354-.1-1.348-.113-2.63-.037Zm-5.142 7.084a3.281 3.281 0 0 0-1.643 1.525c-.23.441-.265.628-.265 1.421 0 .796.035.981.27 1.434.5.967 1.32 1.587 2.305 1.743 2.323.37 4.207-1.665 3.636-3.926-.491-1.947-2.475-2.96-4.303-2.197Zm9.304 1.199c-.759 1.37-3.35 4.318-4.767 5.42-1.439 1.118-2.86 1.407-4.655.946-1.036-.265-1.773-.644-4.228-2.172-1.527-.951-2.262-1.345-2.944-1.577-.5-.17-.917-.298-.927-.285-.058.072 1.477 2.095 2.254 2.97.496.56 1.131 1.336 1.412 1.726.753 1.044 1.552 2.792 1.915 4.186.286 1.102.31 1.323.315 2.918.005 1.462-.028 1.862-.217 2.62-.554 2.219-1.774 4.891-3.242 7.098l-.387.583.278-.107c.424-.162 2.62-1.963 4.854-3.982 1.463-1.322 4.975-5.6 6.24-7.6 1.096-1.734 3.014-5.9 3.532-7.672.119-.405.256-.736.304-.736.05 0 .118.263.153.584.108.99.362 2.174.624 2.918.39 1.105 1.364 3.013 2.234 4.376.792 1.24 1.049 1.744.944 1.85-.053.054-.39.002-2.15-.336-1.51-.29-3.186-.13-4.262.404-.588.292-1.42 1.137-1.733 1.76-.118.235-.261.803-.318 1.262-.206 1.65.203 3.654 1.223 6.005.612 1.408.601 1.416.781-.588.267-2.973 1.25-4.527 2.866-4.53.53-.001 1.792.375 3.017.9 2.409 1.031 3.48 1.139 4.425.445.505-.37 1.045-1.077 1.496-1.955.294-.574 1.948-4.488 3.082-7.293.038-.094-.066-.074-.335.066-.599.31-1.546.6-2.367.727-2.203.339-4.24-1.179-6.131-4.567-1.012-1.812-1.755-3.678-2.345-5.886-.172-.642-.348-1.204-.391-1.248-.044-.045-.291.301-.55.77Zm21.516 3.042c-.03.125-.105.799-.167 1.497-.375 4.26-1.488 9.817-2.405 12.004-.824 1.966-2.449 4.655-3.743 6.193-.77.916-2.127 2.091-3.406 2.95-1.95 1.309-5.218 2.704-7.53 3.216-1.893.42-3.35.47-7.078.242-.998-.06-1.14-.047-1.513.146-.528.273-1.168 1.011-1.318 1.521-.276.935-.002 1.958.72 2.69.545.554.9.612 3.314.546 7.617-.207 13.062-2.297 17.357-6.664 2.48-2.52 4.232-5.384 5.283-8.632.498-1.54.96-3.387 1.161-4.654.43-2.69.459-7.675.057-9.6-.312-1.496-.59-2.048-.732-1.455Zm-12.74.36c-1.094.396-1.795 1.098-2.084 2.086-.451 1.543.17 3.063 1.562 3.822.574.313.723.349 1.44.352.658.003.9-.044 1.358-.262 2-.952 2.486-3.644.94-5.213-.805-.816-2.196-1.156-3.217-.786Zm-30.842 6.32c-.678.313-1.105.686-1.312 1.149-.158.353-.188.676-.19 2.093-.007 5.845 1.344 11.058 3.868 14.922 3.437 5.262 8.718 8.616 15.488 9.836 2.729.491 7.887.55 9.895.114 1.516-.33 2.036-.61 1.378-.744-.155-.032-.864-.108-1.576-.17-1.756-.155-5.535-.748-7.546-1.184-2.702-.586-4.606-1.28-6.449-2.348-1.208-.701-3.038-1.961-3.796-2.614-2.224-1.914-4.388-5.43-5.54-9-.97-3.006-1.161-4.778-.907-8.406.065-.922.087-1.841.049-2.044-.094-.506-.787-1.28-1.41-1.574a2.305 2.305 0 0 0-1.952-.03Zm35.012 2.684c-.005.546-.322 2.892-.51 3.775-.296 1.382-.522 1.942-1.202 2.974-.739 1.12-1.53 1.861-2.478 2.319-.657.317-.85.36-1.751.4-1.867.082-3.91-.443-6.065-1.558l-1.25-.647.65.607c1.852 1.73 3.4 2.931 4.446 3.452 1.47.731 3.66 1.027 4.907.663 2.044-.597 3.223-1.956 4.1-4.726.599-1.893.597-3.93-.004-5.76-.27-.823-.84-1.835-.843-1.5Z" fill="#0086FF"/></svg>
